X:1
T:Great Storm is Over
M:2/2
L:1/4
K:G
 d| d2 d/2 d3/2| B B2 A| G2 G3/2 E/2| D2 z G| G/2 G3/2 A2| B2 B3/2 A/2|\
 G G2 E| D3 z| d2 d/2 d3/2| B B2 E| G G2 E| D2 z G/2G/2| G2 E B| B B2 A|\
 G G2 E| D3 z| D3 G| G G2 A| A2 A3/2 G/2| A B2 d| d2 B- A| G2 E2| D4|\
